16x16/actions/mail-reply-custom-all.svg

<svg viewBox="0 0 16 16" xmlns="http://www.w3.org/2000/svg"><path d="m6 3-5 4 5 4v-1.281l-3.398-2.719 3.398-2.719zm3 0-5 4 5 4v-3h5v-2h-5zm2.5 6-.479 1.346-1.289-.614.614 1.29-1.346.478 1.346.479-.614 1.289 1.29-.614.478 1.346.479-1.346 1.289.614-.614-1.29 1.346-.478-1.346-.479.614-1.289-1.29.614z" fill="#8b9cbe"/></svg>

<svg xmlns="http://www.w3.org/2000/svg" viewBox="0 0 16 16"><path style="fill:currentColor;fill-opacity:1;stroke:none;color:#8b9cbe" d="M6 3 1 7l5 4V9.719L2.602 7 6 4.281V3zm3 0L4 7l5 4V8h5V6H9V3zm2.5 6-.479 1.346-1.289-.614.614 1.29L9 11.5l1.346.479-.614 1.289 1.29-.614L11.5 14l.479-1.346 1.289.614-.614-1.29L14 11.5l-1.346-.479.614-1.289-1.29.614L11.5 9z"/></svg>
